assets/images/StarterX-Badges_Support-Guidance.svg

<svg width="80" height="80" viewBox="0 0 80 80" fill="none" xmlns="http://www.w3.org/2000/svg">
<path d="M77.06 43.07C76.78 45.17 76.49 47.27 75.95 49.32C74.5 54.82 71.92 59.72 68.25 64.06C67.91 64.47 67.68 64.52 67.28 64.12C63.18 60 59.07 55.89 54.96 51.8C54.58 51.43 54.62 51.16 54.91 50.76C57.2 47.63 58.41 44.11 58.46 40.25C58.51 36.31 57.34 32.69 55.02 29.49C54.58 28.88 54.66 28.55 55.16 28.06C59.17 24.09 63.15 20.09 67.14 16.11C67.78 15.47 67.79 15.47 68.38 16.19C73.33 22.11 76.21 28.9 76.96 36.59C76.97 36.73 77.02 36.87 77.05 37.01V43.09L77.06 43.07Z" fill="#008A9B"/>
<path d="M36.99 77.0699C34.92 76.7899 32.85 76.5099 30.81 75.9799C25.28 74.5399 20.36 71.9399 15.99 68.2699C15.58 67.9299 15.53 67.6999 15.93 67.2999C20.05 63.1999 24.16 59.0899 28.25 54.9799C28.62 54.5999 28.89 54.6399 29.29 54.9299C32.42 57.2199 35.94 58.4399 39.8 58.4799C43.74 58.5299 47.36 57.3599 50.56 55.0399C51.17 54.5999 51.5 54.6799 51.99 55.1799C55.94 59.1699 59.92 63.1299 63.9 67.1099C64.59 67.7999 64.59 67.7999 63.87 68.4099C57.93 73.3699 51.12 76.2699 43.4 76.9899C43.28 76.9999 43.17 77.0499 43.05 77.0799H36.97L36.99 77.0699Z" fill="#008A9B"/>
<path d="M12.34 15.61C12.45 15.69 12.59 15.78 12.71 15.9C16.85 20.04 20.99 24.19 25.14 28.32C25.51 28.69 25.41 28.95 25.15 29.31C23.43 31.69 22.28 34.32 21.83 37.23C21.08 42.11 22.2 46.56 25.02 50.58C25.44 51.18 25.42 51.51 24.9 52.02C20.89 55.99 16.91 59.99 12.92 63.97C12.27 64.62 12.27 64.62 11.67 63.91C6.83999 58.16 3.90999 51.55 3.13999 44.09C2.05999 33.55 4.97999 24.17 11.79 16.02C11.93 15.86 12.04 15.66 12.32 15.61H12.34Z" fill="#008A9B"/>
<path d="M40.05 2.93999C49.07 3.00999 57.03 5.93999 63.97 11.71C64.49 12.14 64.51 12.4 64.03 12.88C59.97 16.9 55.93 20.94 51.91 25C51.49 25.43 51.2 25.47 50.7 25.1C47.59 22.83 44.09 21.63 40.25 21.59C36.28 21.55 32.65 22.74 29.43 25.07C28.93 25.43 28.62 25.46 28.16 24.99C24.14 20.93 20.1 16.9 16.04 12.87C15.6 12.43 15.54 12.19 16.06 11.75C21.85 6.88999 28.5 4.01999 36 3.12999C37.34 2.96999 38.69 2.89999 40.05 2.93999Z" fill="#008A9B"/>
</svg>

<?xml version="1.0" encoding="UTF-8"?>
<svg id="Layer_1" data-name="Layer 1" xmlns="http://www.w3.org/2000/svg" viewBox="0 0 80 80">
  <defs>
    <style>
      .cls-1 {
        fill: #eae1b9;
        stroke-width: 0px;
      }
    </style>
  </defs>
  <g id="aSFrcK.tif">
    <g>
      <path class="cls-1" d="M77.06,43.07c-.28,2.1-.57,4.2-1.11,6.25-1.45,5.5-4.03,10.4-7.7,14.74-.34.41-.57.46-.97.06-4.1-4.12-8.21-8.23-12.32-12.32-.38-.37-.34-.64-.05-1.04,2.29-3.13,3.5-6.65,3.55-10.51.05-3.94-1.12-7.56-3.44-10.76-.44-.61-.36-.94.14-1.43,4.01-3.97,7.99-7.97,11.98-11.95.64-.64.65-.64,1.24.08,4.95,5.92,7.83,12.71,8.58,20.4.01.14.06.28.09.42v6.08Z"/>
      <path class="cls-1" d="M36.99,77.07c-2.07-.28-4.14-.56-6.18-1.09-5.53-1.44-10.45-4.04-14.82-7.71-.41-.34-.46-.57-.06-.97,4.12-4.1,8.23-8.21,12.32-12.32.37-.38.64-.34,1.04-.05,3.13,2.29,6.65,3.51,10.51,3.55,3.94.05,7.56-1.12,10.76-3.44.61-.44.94-.36,1.43.14,3.95,3.99,7.93,7.95,11.91,11.93.69.69.69.69-.03,1.3-5.94,4.96-12.75,7.86-20.47,8.58-.12.01-.23.06-.35.09h-6.08Z"/>
      <path class="cls-1" d="M12.34,15.61c.11.08.25.17.37.29,4.14,4.14,8.28,8.29,12.43,12.42.37.37.27.63.01.99-1.72,2.38-2.87,5.01-3.32,7.92-.75,4.88.37,9.33,3.19,13.35.42.6.4.93-.12,1.44-4.01,3.97-7.99,7.97-11.98,11.95-.65.65-.65.65-1.25-.06-4.83-5.75-7.76-12.36-8.53-19.82-1.08-10.54,1.84-19.92,8.65-28.07.14-.16.25-.36.53-.41Z"/>
      <path class="cls-1" d="M40.05,2.94c9.02.07,16.98,3,23.92,8.77.52.43.54.69.06,1.17-4.06,4.02-8.1,8.06-12.12,12.12-.42.43-.71.47-1.21.1-3.11-2.27-6.61-3.47-10.45-3.51-3.97-.04-7.6,1.15-10.82,3.48-.5.36-.81.39-1.27-.08-4.02-4.06-8.06-8.09-12.12-12.12-.44-.44-.5-.68.02-1.12,5.79-4.86,12.44-7.73,19.94-8.62,1.34-.16,2.69-.23,4.05-.19Z"/>
    </g>
  </g>
</svg>
